X:1
T:River of Peace
T:River of Peace
T:Barney Elliott Warren
T:Daniel Sidney Warner, 1888
T:Public Domain Courtesy of the Cyber Hymnal™
T:Public Domain Courtesy of the Cyber Hymnal™
C:Barney Elliott Warren
Z:Public Domain
Z:Courtesy of the Cyber Hymnal™
%%score ( 1 2 ) ( 3 4 )
L:1/8
Q:1/4=100
M:4/4
K:Eb
V:1 treble 
V:2 treble 
V:3 bass 
V:4 bass 
V:1
 (EF) | [EG]2 [EG][EG] (GF)E[EG] | [GB]6 (GF) | E2 [EB][Ec] [EB]2 E[EG] | [DF]6 (GF) | %5
w: 1.~I’ll *|sing of a riv- * er di-|vine, Its *|wa- ters from trou- ble re-|lease; More *|
w: 2.~’Tis *|flow- ing from Hea- * ven to|earth, It *|is- sues from un- der the|throne; Great *|
w: 3.~O *|won- der- ful life- * giv- ing|flood, Thy *|wa- ters so crys- tal and|pure Make *|
w: 4.~O *|Je- sus! the tem- * pest of|sin Is *|hushed in- to heav- en- ly|rest Since *|
w: 5.~My *|mo- ments, as an- * gels ap-|pear, All *|glid- ing so gent- ly a-|long, Each *|
 E2 [EG][EG] (GF)E[EG] | [GB]6 E2 | [EG]2 [EB][Ec] [EB]2 [B,D][B,D] | [B,E]6 || %9
w: pre- cious than “hon- * ey and|wine,” That|riv- er, sweet riv- er is|peace.|
w: peace! O thy in- * fi- nite|worth! Sweet|peace in my Je- sus a-|lone.|
w: glad all the “Ci- * ty of|God”; For-|ev- er thy bless- ings en-|dure.|
w: tast- ing the pure * liv- ing|stream That|flows from Thy cru- ci- fied|breast.|
w: drop- ping a bless- * ing so|rare, En-|rap- tures my soul with a|song.|
"^Refrain" [EG][EA] | B6 [EG][GB] | e6 [Bd][Ac] | B6 [FA][EG] | F6 [EG][DA] | B6 [GB][FA] | %15
w: ||||||
w: O this|riv- er of|peace Makes me|per- fect and|whole; And its|bless- ings in-|
w: ||||||
w: ||||||
w: ||||||
 G6 [B,D][B,E] | F4 [DB]2 [DG]2 | E6 |] %18
w: |||
w: crease, Flow- ing|deep in my|soul.|
w: |||
w: |||
w: |||
V:2
 E2 | x4 E2 E x | x6 E2 | E2 x2 E x3 | x6 E2 | E2 E2 E x3 | x6 E2 | x8 | x6 || x2 | (E2 EE E2) x2 | %11
 (G2 GG G2) x2 | (G2 GG G2) x2 | (D2 DD D2) x2 | (E2 EE E2) x2 | (E2 EE E2) x2 | (D2 DD) x4 | %17
 (E2 C2 B,2) |] %18
V:3
 (G,A,) | [E,B,]2 [E,B,][E,B,] (B,A,)[E,G,][E,B,] | [E,E]6 (B,A,) | %3
w: |||
 [E,G,]2 [E,G,][E,A,] [E,G,]2 [G,B,][E,B,] | [B,,B,]6 (B,A,) | %5
w: ||
 [E,G,]2 [E,B,][E,B,] (B,A,)[E,G,][E,B,] | [E,E]6 [C,=A,]2 | %7
w: ||
 [B,,B,]2 [B,,G,][B,,A,] [B,,G,]2 [B,,A,][B,,A,] | [E,G,]6 || E,[E,F,] | %10
w: ||O this|
 [E,G,]2 [E,G,][E,G,] [E,G,]2 [E,B,][E,B,] | [E,B,]2 [E,B,][E,B,] [E,B,]2 [E,C][E,D] | %12
w: riv- er of peace, bless- èd|riv- er of peace Makes me|
 [E,E]2 [E,E][E,E] [E,E]2 [D,B,][E,B,] | [B,,B,]2 [D,B,][F,B,] B,2 [G,B,][F,A,] | %14
w: per- fect and whole, ev- er|per- fect and whole; And its|
 [E,G,]2 [E,G,][E,G,] [E,G,]2 [E,B,][E,B,] | [E,B,]2 [E,B,][E,B,] [E,B,]2 [F,A,][E,G,] | %16
w: bless- ings in- crease, ev- er|joy- ful, in- crease, Flow- ing|
 B,2 B,B, [B,,F,]2 [B,,B,]2 | G,2 A,2 G,2 |] %18
w: deep in my hap- py|hap- py soul.|
V:4
 E,2 | x4 E,2 x2 | x6 E,2 | x8 | x6 E,2 | x4 E,2 x2 | x8 | x8 | x6 || E, x | x8 | x8 | x8 | %13
 x4 (B,A,) x2 | x8 | x8 | B,,4 x4 | E,6 |] %18

